X:2
T:Bill's French Tune Harmony
M:C
L:1/4
K:Dm
D E2G | FED2 | A2 =BA-|  A=Bcd-|
 dA2=B | AGA2 | AF GA-|AGA2 :|
|: z3  D/E/|  FD  E^C | D A2 A | BGA^c|
 d A2 d/e/ |  fd  e^c |dc BA- | AGA2:|
